!!!!SEGMENT: pl-kk--kk-i-382--030_anonim--niebiosa-rose-spuszczajcie.krn
!!!cenid: 18xx:1517
!!!COM: Anonim
!!!COM-rism: pe30004985
!!!CDT:
!!!CNT:
!!!OTL: Niebiosa rosę spuszczajcie
!!!PDT:
!!!AGN: Sacred
!!!SMS-siglum: PL-Kk
!!!SMS-shelfmark: Kk.I.382
!!!NIFC-rismID: 1001139238
!!!URL-scan: http://repozytorium.nifc.pl/skany/pl-kk-nut--i-382
!!!ONB-nifc: UWAGA: obsada: S (T 1), A (B 1), T 2, B 2; S (T 1): skan 0030; A (B 1): skan 0178; T 2: skan 0103; B 2: skan 0252
!!!SMS-variant:
!!!SMS-altvar:6
**kern	**text	**text	**text	**kern	**text	**text	**text	**kern	**text	**text	**text	**kern	**text	**text	**text
*part4	*part4	*part4	*part4	*part3	*part3	*part3	*part3	*part2	*part2	*part2	*part2	*part1	*part1	*part1	*part1
*staff4	*staff4	*staff4	*staff4	*staff3	*staff3	*staff3	*staff3	*staff2	*staff2	*staff2	*staff2	*staff1	*staff1	*staff1	*staff1
*I"Basso II	*	*	*	*I"Tenore II	*	*	*	*I"Alto vel Basso I	*	*	*	*I"Soprano vel Tenore I.	*	*	*
*I'B 2	*	*	*	*I'T 2	*	*	*	*I'A (B 1)	*	*	*	*I'S (T 1)	*	*	*
*clefF4	*	*	*	*clefG2	*	*	*	*clefF4	*	*	*	*clefG2	*	*	*
*k[]	*	*	*	*k[]	*	*	*	*k[]	*	*	*	*k[]	*	*	*
*M4/4	*	*	*	*M4/4	*	*	*	*M4/4	*	*	*	*M4/4	*	*	*
*met(c)	*	*	*	*met(c)	*	*	*	*met(c)	*	*	*	*met(c)	*	*	*
=1	=1	=1	=1	=1	=1	=1	=1	=1	=1	=1	=1	=1	=1	=1	=1
*2\right	*	*	*	*2\right	*	*	*	*2\right	*	*	*	*2\right	*	*	*
!LO:TX:t=P:problem:kaudy różnie: z prawej bądź lewej strony	!	!	!	!LO:TX:t=P:problem:większość kaud z lewej strony	!	!	!	!LO:TX:t=P:problem:all\right:global	!	!	!	!LO:TX:t=P:problem:all\right:global	!	!	!
2C/	Nie-	Pu,-	Nie-	2g/	Nie-	Pu,-	Nie-	2E\	Nie-	Pu-	Nie,-	2cc\	Nie-	Pu,-	Nie-
4D/	-bio-	-sto	-bio-	4g/	-bio-	-sto	-bio-	4F\	-bio-	-sto	-bio-	4b\	-bio-	-sto	-bio-
4C/	-sa	w twem,	-sa	4g/	-sa	w twem	-sa	4E\	-sa,	w twem,	-sa	4cc\	-sa	w twem,	-sa
=2	=2	=2	=2	=2	=2	=2	=2	=2	=2	=2	=2	=2	=2	=2	=2
2BB/	ro-	mie-	ro-	2g/	ro-	mie-	ro-	(>4D\	ro-	mie-	ro-	2dd\	ro-	mie-	ro-
.	.	.	.	.	.	.	.	4F\)	.	.	.	.	.	.	.
2C/	-sę	-scie	-sę	2g/	-sę	-scie	-sę	2E\	-sę	-scie	-sę	2cc\	-sę	-scie	-sę
=3	=3	=3	=3	=3	=3	=3	=3	=3	=3	=3	=3	=3	=3	=3	=3
2D\	spusz-	pu,-	spusz-	(>4f/	spusz-	pu,-	spusz-	2A\	spusz-	pu,-	spusz-	2ff\	spusz-	pu,-	spusz-
.	.	.	.	4dd\)	.	.	.	.	.	.	.	.	.	.	.
4E\	-czaj-	-sto	-czaj-	4cc#X\	-czaj-	-sto	-czaj-	4G\	-czaj-	-sto	-czaj-	4ee\	-czaj-	-sto	-czaj-
4F\	-cie	w Sy-	-cie	4dd\	-cie	w Sy-	-cie	4A\	-cie	w Sy-	-cię	4dd\	-cie	w Sy-	-cie
!LO:LB:g=original	!	!	!	!LO:LB:g=original	!	!	!	!LO:LB:g=original	!	!	!	!LO:LB:g=original	!	!	!
=4	=4	=4	=4	=4	=4	=4	=4	=4	=4	=4	=4	=4	=4	=4	=4
(>4E\	z gó-	-o-	z gó-	2g/	z gó-	-o-	z gó-	(>4G\	z gó-	-o-	z gó-	2cc\	z gó-	-o-	z gó-
4C/)	.	.	.	.	.	.	.	4E\)	.	.	.	.	.	.	.
2GG;>/	-ry	-nie	-ry	2g/	-ry	-nie	-ry	2D\	-ry	-nie	-ry	2b;>\	-ry	-nie	-ry
=5	=5	=5	=5	=5	=5	=5	=5	=5	=5	=5	=5	=5	=5	=5	=5
2C/	spra-	Je,-	spra-	2g/	spra-	Je,-	spra-	2E\	spra-	Je,-	spra-	2cc\	spra-	Je-	spra-
4D\	-wie-	-ro-	-wie-	4g/	-wie-	-ro-	-wie-	4D\	-wie-	-ro-	-wie-	4b\	-wie-	-ro-	-wie-
4C/	-dli,-	-zo-	-dli,-	4f#X/	-dli,-	-zo-	-dli,-	4D\	-dli,-	-zo-	-dli,-	4a/	-dli,-	-zo-	-dli,-
=6	=6	=6	=6	=6	=6	=6	=6	=6	=6	=6	=6	=6	=6	=6	=6
2BB/	-we-	-li,-	-we-	2g/	-we-	-li,-	-we-	2D\	-we-	-li,-	-we-	2dd\	-we-	-li,-	-we-
2C/	-go	-ma	-go	2g/	-go	-ma	-go	2E\	-go	-ma	-go	2cc\	-go	-ma	-go
!LO:LB:g=original	!	!	!	!	!	!	!	!LO:LB:g=original	!	!	!	!	!	!	!
=7	=7	=7	=7	=7	=7	=7	=7	=7	=7	=7	=7	=7	=7	=7	=7
2GG/	wy-	w bo-	wy-	2g/	wy-	w bo-	wy-	2D\	wy-	w bo-	wy-	2b\	wy-	w bo-	wy-
4AA/	-lej-	-leś-	-lej-	4f#X/	-lej-	-leś-	-lej-	4C/	-lej-	-le,-	-lej-	4a/	-lej-	-leś-	-lej-
4BB/	-cie	-ci,	-cie	4g/	-cie	-ci,	-cie	4D\	-cie	-sci,	-cie	4g/	-cie	-ci,	-cie
!	!	!	!	!LO:LB:g=original	!	!	!	!	!	!	!	!LO:LB:g=original	!	!	!
=8	=8	=8	=8	=8	=8	=8	=8	=8	=8	=8	=8	=8	=8	=8	=8
!	!	!	!	!	!	!	!	!	!	!	!	!LO:TX:a:t=P:problem:kauda z lewej strony	!	!	!
2D\	chmó-	to-	chmó-	2f#X/	chmó-	to-	chmó-	2D\	chmó-	to-	chmó-	2a/	chmó-	to-	chmó-
!	!	!	!	!	!	!	!	!	!	!	!	!LO:TX:a:t=P:problem:kauda z lewej strony	!	!	!
2GG;>/	-ry	-nie	-ry	2g;>/	-ry	-nie	-ry	2G;>\	-ry	-nie	-ry	2g;>/	-ry	-nie	-ry
=9	=9	=9	=9	=9	=9	=9	=9	=9	=9	=9	=9	=9	=9	=9	=9
2E\	O	Ru,-	Grzech,	2g/	O	Ru,-	Grzech,	2G\	O	Ru,-	Grzech,	2cc\	O	Ru,-	Grzech,
4BB/	wstrzy-	-nął	nas	4g/	wstrzy-	-nął,	nas	4Fn\	wstrzy-	-nął	nas	4dd\	wstrzy-	-nął	nas
4C/	-maj	dom	o-	4g/	-maj	dom	o-	4E\	-maj	dom,	o-	4cc\	-maj	dom,	o-
!LO:LB:g=original	!	!	!	!	!	!	!	!	!	!	!	!	!	!	!
=10	=10	=10	=10	=10	=10	=10	=10	=10	=10	=10	=10	=10	=10	=10	=10
2GG/	wstrzy-	Twój	-szpe-	2g/	wstrzy-	Twoj	-szpe-	(>2D\	wstrzy-	Twoj	-szpe-	2b\	wstrzy-	Two-	-szpe-
!	!	!	!	!	!	!	!	!	!	!	!	!LO:TX:a:t=P:problem:kauda z lewej strony	!	!	!
2G\	-maj	.	-cił,	2g/	-maj	.	-cił,	2G\)	-maj	.	-cił,	2g/	-maj	-jej	-cił,
!	!	!	!	!	!	!	!	!LO:LB:g=original	!	!	!	!	!	!	!
=11	=11	=11	=11	=11	=11	=11	=11	=11	=11	=11	=11	=11	=11	=11	=11
4D\	Two-	swię-	i,	4a/	Two-	swię-	i,	4F\	Two-	swię-	i,	4a/	Two-	swię-	i,
4D\	-je	-toś-	w stra-	4a-/	-je	-toś-	w stro-	4F\	-je	-tos-	w stra-	4b/	-je	-to-	w stro-
4E\	za-	-ci,	-sznej	4g/	za-	-ci,	-sznej	4E\	za-	-ci	-sznej	4cc\	za-	-sci,	-sznej
4BB/	-gnie-	i,	po-	4g/	-gnie-	i,	po-	4G\	-gnie-	i,	po-	4dd\	-gnie-	i,	po-
!	!	!	!	!LO:LB:g=original	!	!	!	!	!	!	!	!LO:LB:g=original	!	!	!
=12	=12	=12	=12	=12	=12	=12	=12	=12	=12	=12	=12	=12	=12	=12	=12
4C/	-wa-	chwa-	-sta-	(>4g/	-wa-	chwa-	-sta-	2G\	-wa-	chwa-	-sta-	2ee\	-wa-	chwa-	-sta-
4E\	.	.	.	4cc\)	.	.	.	.	.	.	.	.	.	.	.
2G;<\	-nie	-ły	-ci,	2b;>\	-nie	-ły	-ci,	2G;<\	-nie	-ły	-ci,	2dd;<\	-nie	-ły	-ci,
!LO:LB:g=original	!	!	!	!	!	!	!	!	!	!	!	!	!	!	!
=13	=13	=13	=13	=13	=13	=13	=13	=13	=13	=13	=13	=13	=13	=13	=13
2C/	I	Gdzie	sto-	2cc\	I	Gdzie	Sto-	2G\	I	Gdzie	Sto-	2ee\	I	Gdzie	Sto-
4C/	grze,-	dla	-im,	4g/	grze,-	dla	-im,	4E\	grze,-	dla,	-im	4cc\	grze,-	dla	-im,
4C/	-chów	Cię	przed	4g/	-chów	Cię	przed	4E\	-chów	Cię	przed	4b\	-chów	Cię	przed
!	!	!	!	!	!	!	!	!LO:LB:g=original	!	!	!	!	!	!	!
=14	=14	=14	=14	=14	=14	=14	=14	=14	=14	=14	=14	=14	=14	=14	=14
!	!	!	!	!	!	!	!	!	!	!	!	!LO:TX:a:t=P:problem:kauda z lewej strony	!	!	!
2D\	na-	hy-	To-	2f/	na-	hy-	To-	2F\	na-	hy-	To-	2a/	na-	hy-	To-
!	!	!	!	!	!	!	!	!	!	!	!	!LO:TX:a:t=P:problem:kauda z lewej strony	!	!	!
2D\	-szych	-mny	-bą	2f/	-szych	-mny	-bą	2D\	-szych,	-mny	-bą	2a/	-szych,	-mny	-bą
!	!	!	!	!LO:LB:g=original	!	!	!	!	!	!	!	!	!	!	!
=15	=15	=15	=15	=15	=15	=15	=15	=15	=15	=15	=15	=15	=15	=15	=15
4GG/	za-	oj-	jak-	4g/	za,-	oj-	jak,-	4D\	za-	oj-	jak,-	4b\	za-	Oj-	jak,-
4GG/	-pom,-	-ców	-by	4g/	-pom,-	-ców	-by	4E\	-pom,-	ców	-by	4cc\	-po-	-ców	-by
4GG/	-nij	na-	trę-	4g/	-nij	na-	trę-	4F\	-nij	na-	trę-	4dd\	-mnij	na-	trę-
4GG/	juz	-szych	-do-	4g/	juz	-szych	-do-	4D\	juz,	-szych	-do-	4b\	już	-szych	-do-
!LO:LB:g=original	!	!	!	!	!	!	!	!	!	!	!	!LO:LB:g=original	!	!	!
=16	=16	=16	=16	=16	=16	=16	=16	=16	=16	=16	=16	=16	=16	=16	=16
2C/	Pa,-	brzmia-	-wa-	2g/	Pa-	brzmia-	-wa-	2E\	Pa-	brzmia-	-wa-	2cc\	Pa-	brzmia-	-wa-
2C/	-nie	-ly	-ci,	2g/	-nie	-ły	-ci,	2E\	-nie	-ły	-ci,	2cc;>\	-nie	-ły	-ci,
==	==	==	==	==	==	==	==	==	==	==	==	==	==	==	==
*-	*-	*-	*-	*-	*-	*-	*-	*-	*-	*-	*-	*-	*-	*-	*-
!!!system-decoration: [(s1,s2,s3,s4)]
!!!RDF**kern: > = above
!!!RDF**kern: < = below
!!!EED: Mateusz Mrugas
!!!EST: 2021-02-07
!!!ENC:Berenika Jozajtis
!!!END:2021-01-29
